img/Article/Dev-Think-4Ways2AIWorld/dream.svg

<svg xmlns="http://www.w3.org/2000/svg" width="295pt" height="557pt" viewBox="0 0 294.5 556.65"><g class="graph" transform="translate(4 552.65)"><path fill="#fff" d="M-4 4v-556.65h294.5V4H-4z"/><text text-anchor="middle" x="143.25" y="-8.2" font-family="Times,serif" font-size="14">理想化的&quot;自下而上&quot;模拟 (计算量巨大)</text><g class="cluster"><path fill="none" stroke="#000" stroke-dasharray="1,5" d="M8-206v-334.65h119V-206H8z"/><text text-anchor="middle" x="67.5" y="-524.05" font-family="Times,serif" font-size="14">大量独立 AI Agents</text></g><g class="cluster"><path fill="none" stroke="#000" stroke-dasharray="1,5" d="M27-100.4v-76.8h226v76.8H27z"/><text text-anchor="middle" x="140" y="-160.6" font-family="Times,serif" font-size="14">共享环境</text></g><g class="node"><ellipse fill="#add8e6" stroke="#000" cx="71" cy="-478.44" rx="47.61" ry="29.42"/><text text-anchor="middle" x="71" y="-482.64" font-family="Times,serif" font-size="14">Agent 1</text><text text-anchor="middle" x="71" y="-465.84" font-family="Times,serif" font-size="14">(独立决策)</text></g><g class="node"><ellipse fill="#add8e6" stroke="#000" cx="71" cy="-372.81" rx="47.61" ry="29.42"/><text text-anchor="middle" x="71" y="-377.01" font-family="Times,serif" font-size="14">Agent 2</text><text text-anchor="middle" x="71" y="-360.21" font-family="Times,serif" font-size="14">(独立决策)</text></g><g class="edge"><path fill="none" stroke="gray" d="M71-448.57v35.19"/><path fill="gray" stroke="gray" d="m71-403.74 4.5-10-4.5 6.22v-6.22 6.22l-4.5-6.22 4.5 10z"/><text text-anchor="middle" x="92.12" y="-422.92" font-family="Times,serif" font-size="9">Agent间交互</text></g><g class="node"><path fill="#90ee90" stroke="#000" d="M233-144.4h-34c-6 0-12 6-12 12v12c0 6 6 12 12 12h34c6 0 12-6 12-12v-12c0-6-6-12-12-12"/><text text-anchor="middle" x="216" y="-122.2" font-family="Times,serif" font-size="14">环境资源</text></g><g class="edge"><path fill="none" stroke="gray" d="M97.52-453.8c6.87 6.92 13.89 14.78 19.48 22.78 61.94 88.7 86.97 218.57 95.37 275.32"/><path fill="gray" stroke="gray" d="m213.75-145.94 3.06-10.53-3.59 6.78-.87-6.16.87 6.16-5.32-5.53 5.85 9.28z"/><text text-anchor="middle" x="190" y="-317.29" font-family="Times,serif" font-size="9">与环境交互</text></g><g class="node"><path fill="gold" stroke="#000" d="M99-61.6H29v36.8h70v-36.8z"/><text text-anchor="middle" x="64" y="-46.8" font-family="Times,serif" font-size="12">宏观世界变化</text><text text-anchor="middle" x="64" y="-32.4" font-family="Times,serif" font-size="12">(涌现)</text></g><g class="edge"><path fill="none" stroke="gray" stroke-dasharray="5,2" d="M118.36-473.66C178.07-466.01 273-442.98 273-373.81v248.41c0 13.19-5.44 17.1-16 25-43.26 32.37-104.77 46.14-146.65 51.97"/><path fill="gray" stroke="gray" d="m100.57-47.17 10.49 3.19-6.74-3.67 6.17-.8-6.17.8 5.59-5.26-9.34 5.74z"/><text text-anchor="middle" x="279.75" y="-252.6" font-family="Times,serif" font-size="9">影响</text></g><g class="node"><ellipse fill="#add8e6" stroke="#000" cx="64" cy="-255.3" rx="47.61" ry="41.3"/><text text-anchor="middle" x="64" y="-267.9" font-family="Times,serif" font-size="14">...</text><text text-anchor="middle" x="64" y="-251.1" font-family="Times,serif" font-size="14">Agent N</text><text text-anchor="middle" x="64" y="-234.3" font-family="Times,serif" font-size="14">(独立决策)</text></g><g class="edge"><path fill="none" stroke="gray" d="M69.25-342.96c-.64 10.65-1.4 23.05-2.12 35.09"/><path fill="gray" stroke="gray" d="m66.54-298.19 5.1-9.7-4.87 5.93.37-6.21-.37 6.21-4.12-6.48 3.89 10.25z"/><text text-anchor="middle" x="89.25" y="-317.29" font-family="Times,serif" font-size="9">Agent间交互</text></g><g class="node"><path fill="#90ee90" stroke="#000" d="M157-144.4h-34c-6 0-12 6-12 12v12c0 6 6 12 12 12h34c6 0 12-6 12-12v-12c0-6-6-12-12-12"/><text text-anchor="middle" x="140" y="-122.2" font-family="Times,serif" font-size="14">地理位置</text></g><g class="edge"><path fill="none" stroke="gray" d="M97.24-348.11c6.26 6.8 12.39 14.59 16.76 22.72 29.27 54.51 30.37 129.24 28.35 169.5"/><path fill="gray" stroke="gray" d="m141.74-146 5.1-9.71-4.87 5.93.38-6.21-.38 6.21-4.11-6.48 3.88 10.26z"/><text text-anchor="middle" x="159.16" y="-252.6" font-family="Times,serif" font-size="9">与环境交互</text></g><g class="node"><path fill="#90ee90" stroke="#000" d="M81-144.4H47c-6 0-12 6-12 12v12c0 6 6 12 12 12h34c6 0 12-6 12-12v-12c0-6-6-12-12-12"/><text text-anchor="middle" x="64" y="-122.2" font-family="Times,serif" font-size="14">世界状态</text></g><g class="edge"><path fill="none" stroke="gray" d="M64-213.8v58.24"/><path fill="gray" stroke="gray" d="m64-145.83 4.5-10-4.5 6.22v-6.22 6.22l-4.5-6.22 4.5 10z"/><text text-anchor="middle" x="80.88" y="-187.9" font-family="Times,serif" font-size="9">与环境交互</text></g><g class="edge"><path fill="none" stroke="gray" stroke-dasharray="5,2" d="M34.64-222.22c-10.01 13-19.98 28.77-25.14 45.02-10.34 32.53-12.82 45.17 0 76.8 4.73 11.67 13.17 22.25 22.02 31.01"/><path fill="gray" stroke="gray" d="m38.77-62.71-4.3-10.09 1.52 7.53-4.57-4.22 4.57 4.22-7.62-.91 10.4 3.47z"/><text text-anchor="middle" x="16.25" y="-123.7" font-family="Times,serif" font-size="9">影响</text></g><g class="edge"><path fill="none" stroke="gray" stroke-dasharray="5,2" d="M64-108.18v35.12"/><path fill="gray" stroke="gray" d="m64-63.18 4.5-10-4.5 6.22v-6.22 6.22l-4.5-6.22 4.5 10z"/><text text-anchor="middle" x="70.75" y="-82.3" font-family="Times,serif" font-size="9">影响</text></g></g></svg>

<svg xmlns="http://www.w3.org/2000/svg" xmlns:xlink="http://www.w3.org/1999/xlink" width="295pt" height="557pt" viewBox="0.00 0.00 294.50 556.65">
<g id="graph0" class="graph" transform="scale(1 1) rotate(0) translate(4 552.65)">
<title>Ideal_Bottom_Up_Simulation</title>
<polygon fill="white" stroke="none" points="-4,4 -4,-552.65 290.5,-552.65 290.5,4 -4,4"/>
<text text-anchor="middle" x="143.25" y="-8.2" font-family="Times,serif" font-size="14.00">理想化的"自下而上"模拟 (计算量巨大)</text>
<g id="clust1" class="cluster">
<title>cluster_agents</title>
<polygon fill="none" stroke="black" stroke-dasharray="1,5" points="8,-206 8,-540.65 127,-540.65 127,-206 8,-206"/>
<text text-anchor="middle" x="67.5" y="-524.05" font-family="Times,serif" font-size="14.00">大量独立 AI Agents</text>
</g>
<g id="clust2" class="cluster">
<title>cluster_env</title>
<polygon fill="none" stroke="black" stroke-dasharray="1,5" points="27,-100.4 27,-177.2 253,-177.2 253,-100.4 27,-100.4"/>
<text text-anchor="middle" x="140" y="-160.6" font-family="Times,serif" font-size="14.00">共享环境</text>
</g>
<!-- Agent1 -->
<g id="node1" class="node">
<title>Agent1</title>
<ellipse fill="lightblue" stroke="black" cx="71" cy="-478.44" rx="47.61" ry="29.42"/>
<text text-anchor="middle" x="71" y="-482.64" font-family="Times,serif" font-size="14.00">Agent 1</text>
<text text-anchor="middle" x="71" y="-465.84" font-family="Times,serif" font-size="14.00">(独立决策)</text>
</g>
<!-- Agent2 -->
<g id="node2" class="node">
<title>Agent2</title>
<ellipse fill="lightblue" stroke="black" cx="71" cy="-372.81" rx="47.61" ry="29.42"/>
<text text-anchor="middle" x="71" y="-377.01" font-family="Times,serif" font-size="14.00">Agent 2</text>
<text text-anchor="middle" x="71" y="-360.21" font-family="Times,serif" font-size="14.00">(独立决策)</text>
</g>
<!-- Agent1&#45;&gt;Agent2 -->
<g id="edge1" class="edge">
<title>Agent1-&gt;Agent2</title>
<path fill="none" stroke="gray" d="M71,-448.57C71,-437.68 71,-425.09 71,-413.38"/>
<polygon fill="gray" stroke="gray" points="71,-403.74 75.5,-413.74 71,-407.52 71,-413.74 71,-413.74 71,-413.74 71,-407.52 66.5,-413.74 71,-403.74"/>
<text text-anchor="middle" x="92.12" y="-422.92" font-family="Times,serif" font-size="9.00">Agent间交互</text>
</g>
<!-- Env_Resource -->
<g id="node4" class="node">
<title>Env_Resource</title>
<path fill="lightgreen" stroke="black" d="M233,-144.4C233,-144.4 199,-144.4 199,-144.4 193,-144.4 187,-138.4 187,-132.4 187,-132.4 187,-120.4 187,-120.4 187,-114.4 193,-108.4 199,-108.4 199,-108.4 233,-108.4 233,-108.4 239,-108.4 245,-114.4 245,-120.4 245,-120.4 245,-132.4 245,-132.4 245,-138.4 239,-144.4 233,-144.4"/>
<text text-anchor="middle" x="216" y="-122.2" font-family="Times,serif" font-size="14.00">环境资源</text>
</g>
<!-- Agent1&#45;&gt;Env_Resource -->
<g id="edge3" class="edge">
<title>Agent1-&gt;Env_Resource</title>
<path fill="none" stroke="gray" d="M97.52,-453.8C104.39,-446.88 111.41,-439.02 117,-431.02 178.94,-342.32 203.97,-212.45 212.37,-155.7"/>
<polygon fill="gray" stroke="gray" points="213.75,-145.94 216.81,-156.47 213.22,-149.69 212.35,-155.85 212.35,-155.85 212.35,-155.85 213.22,-149.69 207.9,-155.22 213.75,-145.94"/>
<text text-anchor="middle" x="190" y="-317.29" font-family="Times,serif" font-size="9.00">与环境交互</text>
</g>
<!-- Emergence -->
<g id="node7" class="node">
<title>Emergence</title>
<polygon fill="gold" stroke="black" points="99,-61.6 29,-61.6 29,-24.8 99,-24.8 99,-61.6"/>
<text text-anchor="middle" x="64" y="-46.8" font-family="Times,serif" font-size="12.00">宏观世界变化</text>
<text text-anchor="middle" x="64" y="-32.4" font-family="Times,serif" font-size="12.00">(涌现)</text>
</g>
<!-- Agent1&#45;&gt;Emergence -->
<g id="edge6" class="edge">
<title>Agent1-&gt;Emergence</title>
<path fill="none" stroke="gray" stroke-dasharray="5,2" d="M118.36,-473.66C178.07,-466.01 273,-442.98 273,-373.81 273,-373.81 273,-373.81 273,-125.4 273,-112.21 267.56,-108.3 257,-100.4 213.74,-68.03 152.23,-54.26 110.35,-48.43"/>
<polygon fill="gray" stroke="gray" points="100.57,-47.17 111.06,-43.98 104.32,-47.65 110.49,-48.45 110.49,-48.45 110.49,-48.45 104.32,-47.65 109.91,-52.91 100.57,-47.17"/>
<text text-anchor="middle" x="279.75" y="-252.6" font-family="Times,serif" font-size="9.00">影响</text>
</g>
<!-- AgentN -->
<g id="node3" class="node">
<title>AgentN</title>
<ellipse fill="lightblue" stroke="black" cx="64" cy="-255.3" rx="47.61" ry="41.3"/>
<text text-anchor="middle" x="64" y="-267.9" font-family="Times,serif" font-size="14.00">...</text>
<text text-anchor="middle" x="64" y="-251.1" font-family="Times,serif" font-size="14.00">Agent N</text>
<text text-anchor="middle" x="64" y="-234.3" font-family="Times,serif" font-size="14.00">(独立决策)</text>
</g>
<!-- Agent2&#45;&gt;AgentN -->
<g id="edge2" class="edge">
<title>Agent2-&gt;AgentN</title>
<path fill="none" stroke="gray" d="M69.25,-342.96C68.61,-332.31 67.85,-319.91 67.13,-307.87"/>
<polygon fill="gray" stroke="gray" points="66.54,-298.19 71.64,-307.89 66.77,-301.96 67.14,-308.17 67.14,-308.17 67.14,-308.17 66.77,-301.96 62.65,-308.44 66.54,-298.19"/>
<text text-anchor="middle" x="89.25" y="-317.29" font-family="Times,serif" font-size="9.00">Agent间交互</text>
</g>
<!-- Env_Location -->
<g id="node5" class="node">
<title>Env_Location</title>
<path fill="lightgreen" stroke="black" d="M157,-144.4C157,-144.4 123,-144.4 123,-144.4 117,-144.4 111,-138.4 111,-132.4 111,-132.4 111,-120.4 111,-120.4 111,-114.4 117,-108.4 123,-108.4 123,-108.4 157,-108.4 157,-108.4 163,-108.4 169,-114.4 169,-120.4 169,-120.4 169,-132.4 169,-132.4 169,-138.4 163,-144.4 157,-144.4"/>
<text text-anchor="middle" x="140" y="-122.2" font-family="Times,serif" font-size="14.00">地理位置</text>
</g>
<!-- Agent2&#45;&gt;Env_Location -->
<g id="edge4" class="edge">
<title>Agent2-&gt;Env_Location</title>
<path fill="none" stroke="gray" d="M97.24,-348.11C103.5,-341.31 109.63,-333.52 114,-325.39 143.27,-270.88 144.37,-196.15 142.35,-155.89"/>
<polygon fill="gray" stroke="gray" points="141.74,-146 146.84,-155.71 141.97,-149.78 142.35,-155.99 142.35,-155.99 142.35,-155.99 141.97,-149.78 137.86,-156.26 141.74,-146"/>
<text text-anchor="middle" x="159.16" y="-252.6" font-family="Times,serif" font-size="9.00">与环境交互</text>
</g>
<!-- Env_State -->
<g id="node6" class="node">
<title>Env_State</title>
<path fill="lightgreen" stroke="black" d="M81,-144.4C81,-144.4 47,-144.4 47,-144.4 41,-144.4 35,-138.4 35,-132.4 35,-132.4 35,-120.4 35,-120.4 35,-114.4 41,-108.4 47,-108.4 47,-108.4 81,-108.4 81,-108.4 87,-108.4 93,-114.4 93,-120.4 93,-120.4 93,-132.4 93,-132.4 93,-138.4 87,-144.4 81,-144.4"/>
<text text-anchor="middle" x="64" y="-122.2" font-family="Times,serif" font-size="14.00">世界状态</text>
</g>
<!-- AgentN&#45;&gt;Env_State -->
<g id="edge5" class="edge">
<title>AgentN-&gt;Env_State</title>
<path fill="none" stroke="gray" d="M64,-213.8C64,-194.82 64,-172.68 64,-155.56"/>
<polygon fill="gray" stroke="gray" points="64,-145.83 68.5,-155.83 64,-149.61 64,-155.83 64,-155.83 64,-155.83 64,-149.61 59.5,-155.83 64,-145.83"/>
<text text-anchor="middle" x="80.88" y="-187.9" font-family="Times,serif" font-size="9.00">与环境交互</text>
</g>
<!-- AgentN&#45;&gt;Emergence -->
<g id="edge7" class="edge">
<title>AgentN-&gt;Emergence</title>
<path fill="none" stroke="gray" stroke-dasharray="5,2" d="M34.64,-222.22C24.63,-209.22 14.66,-193.45 9.5,-177.2 -0.84,-144.67 -3.32,-132.03 9.5,-100.4 14.23,-88.73 22.67,-78.15 31.52,-69.39"/>
<polygon fill="gray" stroke="gray" points="38.77,-62.71 34.47,-72.8 35.99,-65.27 31.42,-69.49 31.42,-69.49 31.42,-69.49 35.99,-65.27 28.37,-66.18 38.77,-62.71"/>
<text text-anchor="middle" x="16.25" y="-123.7" font-family="Times,serif" font-size="9.00">影响</text>
</g>
<!-- Env_State&#45;&gt;Emergence -->
<g id="edge8" class="edge">
<title>Env_State-&gt;Emergence</title>
<path fill="none" stroke="gray" stroke-dasharray="5,2" d="M64,-108.18C64,-97.98 64,-84.81 64,-73.06"/>
<polygon fill="gray" stroke="gray" points="64,-63.18 68.5,-73.18 64,-66.96 64,-73.18 64,-73.18 64,-73.18 64,-66.96 59.5,-73.18 64,-63.18"/>
<text text-anchor="middle" x="70.75" y="-82.3" font-family="Times,serif" font-size="9.00">影响</text>
</g>
</g>
</svg>
